build/img/icon-pipe.svg

<svg width="33" height="24" viewBox="0 0 33 24" fill="none" xmlns="http://www.w3.org/2000/svg">
<g clip-path="url(#clip0)">
<path d="M31.5331 7.79678L31.0134 6.67202H29.7527H21.3059H20.1515L19.5944 7.66205C19.4475 7.923 19.0839 8.72206 18.8489 10.5294C18.6044 10.2114 18.352 9.87306 18.0935 9.52651C16.5579 7.46809 14.8174 5.13509 12.4151 3.71346C11.1619 2.97171 9.52342 2.34275 7.92003 1.98782C7.12063 1.81083 5.86571 1.59998 4.42678 1.59998H3.31321C1.65999 1.59998 0.314941 2.91706 0.314941 4.53591C0.314941 6.15476 1.65999 7.47184 3.31321 7.47184H4.5057C6.2716 7.47184 7.37438 7.93874 8.71964 9.25602C9.83661 10.3498 10.7541 11.8376 11.7255 13.4127C13.3413 16.0329 15.1727 19.0026 18.4429 20.8706C20.2196 21.8854 22.0511 22.4 23.8863 22.4C25.1711 22.4 26.4499 22.146 27.6872 21.6453C29.2337 21.0193 30.4781 19.9149 31.2859 18.4514C31.9591 17.2318 32.3149 15.7973 32.3149 14.3029C32.315 9.83585 31.7166 8.19369 31.5331 7.79678ZM10.646 8.47536C10.4699 8.27779 10.2889 8.08642 10.1014 7.90282C8.37241 6.20976 6.76978 5.55817 4.50563 5.55817H3.31321C2.73666 5.55817 2.26925 5.10047 2.26925 4.53591C2.26925 3.97135 2.73666 3.51365 3.31321 3.51365H4.42678C5.7776 3.51365 6.94037 3.73296 7.48908 3.8544C9.0386 4.1974 10.4651 4.79549 11.4043 5.35133C11.8938 5.64104 12.3582 5.98472 12.8011 6.36507L10.646 8.47536ZM26.9407 19.8767C25.9657 20.2714 24.9437 20.4863 23.8863 20.4863C22.4553 20.4863 20.9594 20.0925 19.4276 19.2176C15.6597 17.0653 14.0288 13.1274 11.8444 10.0082L14.1787 7.72243C16.7938 10.6173 18.6311 14.3454 20.5893 14.3454C20.5893 9.85895 21.3059 8.58569 21.3059 8.58569H29.7527C29.7527 8.58569 30.3607 9.90155 30.3607 14.3029C30.3607 16.4959 29.3836 18.888 26.9407 19.8767Z" fill="white"/>
</g>
<defs>
<clipPath id="clip0">
<rect x="0.314941" width="32" height="24" fill="white"/>
</clipPath>
</defs>
</svg>

<svg width="33" height="24" fill="none" xmlns="http://www.w3.org/2000/svg"><g clip-path="url(#clip0)"><path d="M31.533 7.797l-.52-1.125H20.151l-.557.99c-.146.261-.51 1.06-.745 2.867a87.632 87.632 0 01-.756-1.002c-1.535-2.059-3.276-4.392-5.678-5.814-1.253-.741-2.892-1.37-4.495-1.725-.8-.177-2.054-.388-3.493-.388H3.313C1.66 1.6.315 2.917.315 4.536S1.66 7.472 3.313 7.472h1.193c1.766 0 2.868.467 4.214 1.784 1.117 1.094 2.034 2.582 3.005 4.157 1.616 2.62 3.448 5.59 6.718 7.458 1.777 1.014 3.608 1.529 5.443 1.529a10.09 10.09 0 003.801-.755 7.12 7.12 0 003.599-3.194c.673-1.22 1.029-2.654 1.029-4.148 0-4.467-.598-6.11-.782-6.506zm-20.887.678a11.638 11.638 0 00-.545-.572C8.372 6.21 6.77 5.558 4.506 5.558H3.313A1.033 1.033 0 012.27 4.536c0-.565.468-1.022 1.044-1.022h1.114c1.35 0 2.513.219 3.062.34 1.55.343 2.976.941 3.915 1.497.49.29.954.634 1.397 1.014l-2.155 2.11zm16.295 11.402a8.096 8.096 0 01-3.055.61c-1.43 0-2.927-.394-4.458-1.27-3.768-2.152-5.4-6.09-7.584-9.209l2.335-2.286c2.615 2.895 4.452 6.623 6.41 6.623 0-4.486.717-5.76.717-5.76h8.447s.608 1.317.608 5.718c0 2.193-.977 4.585-3.42 5.574z" fill="#fff"/></g><defs><clipPath id="clip0"><path fill="#fff" d="M.315 0h32v24h-32z"/></clipPath></defs></svg>
